X: 12316
T: Fairy, The
R: reel
M: 4/4
K: Gmajor
d2 B2 GBdB|cBAG FGAc|BG G2 cAA2|fgaf gfef|
d2 B2 GBdB|cBAG FGAc|BG G2 cBAG|1 FDEF G3 A:|2 FDEF G2 Bc||
|:d2 B2 efed|^c2 A2 dedc|B2 G2 c2 A2|fgaf gfed|
d2 B2 efed|^c2 A2 dedc|B2 G2 cBAG|1 FDEF G3 A:|2 FDEF G4||

